X:1
T:6 Partitas
T:6 Partitas – BWV 825-830
T:Johann Sebastian Bach
T:Partita I
T:Creative Commons copyright waiver (CC0 1.0 Universal)
T:Creative Commons copyright waiver (CC0 1.0 Universal)
T:Creative Commons copyright waiver (CC0 1.0 Universal)
T:Creative Commons copyright waiver (CC0 1.0 Universal)
T:Creative Commons copyright waiver (CC0 1.0 Universal)
T:Creative Commons copyright waiver (CC0 1.0 Universal)
T:Creative Commons copyright waiver (CC0 1.0 Universal)
T:Creative Commons copyright waiver (CC0 1.0 Universal)
T:Creative Commons copyright waiver (CC0 1.0 Universal)
T:Creative Commons copyright waiver (CC0 1.0 Universal)
C:Johann Sebastian Bach
Z:Creative Commons copyright waiver (CC0 1.0 Universal)
%%score { ( 1 2 6 7 ) | ( 3 4 5 ) }
L:1/8
Q:1/4=66
M:4/4
K:Bb
V:1 treble nm="Harpsichord" snm="Hch."
V:2 treble 
V:6 treble 
V:7 treble 
V:3 bass 
V:4 bass 
V:5 bass 
V:1
"^Moderato" z/ B/PB/4A/4B/ c/B/d/B/ e/B/PB/4A/4B/ d/B/e/B/ | %1
 f/B/PB/4A/4B/ g/B/a/B/ b/a/4g/4f/b/ c/4d/4ed/4c/4 | %2
 d/4c/4BG/4A/4 B/4c/4dc/4B/4 c/4B/4AF/4G/4 A/4B/4cB/4A/4 | B/4A/4GA/4B/4 c/4d/4=e/4f/4g/B/- BA Bc | %4
 dc/B/ cd ed/=e/ fg- | g f2 =e f4- | ff dB eg c'2- | c'f b2- ba/g/ a/^f/g | ^ff ga Bg ab | %9
 cedc B/4c/4dc/4B/4 A/4B/4cB/4A/4 | B/d/Pd/4c/4d/ b2- ba- a/gf/ | %11
 =e/c/Pc/4=B/4c/ d/c/e/c/ f/c/Pc/4B/4c/ e/c/f/c/ | %12
 g/4f/4=ed/4c/4 b/4a/4gf/4e/4 c'/4e/4f/4g/4f/4e/4f/4d/4 Pe>f | %13
 f3/2A/4B/4 c/4d/4_ed/4c/4 d/4c/4Bd/4e/4 f/4g/4_ag/4f/4 | %14
 g/4f/4ed/4e/4 f/4g/4a/4b/4c'/e/ f/4e/4dc/4d/4 e/4f/4g/4a/4b/d/ | %15
 e/4d/4cd/4e/4 d/4c/4B/4A/4B/4A/4G/4F/4 d2- d>c | B/A/g fe db ag | fedc d/4c/4B/e/4d/4c/ BPA/>B/ | %18
[Q:1/4=65]"^.5" B/B/PB/4A/4B/ c/B/d/B/ e/B/PB/4A/4B/ d/B/e/B/ | %19
 f/B/PB/4A/4B/ g/B/a/B/[Q:1/4=64] b/a/4g/4f/b/ g/b/[Q:1/4=62]f/a/ | !fermata!b8 |][Q:1/4=84] f/ | %22
 f/d/B/A/ B/d/F/B/ D/F/B,/D/ F/ _A/d/f/ | g/e/B/A/ B/e/G/B/ E/G/B,/E/ G/ B/e/g/ | %24
 a/e/c/B/ c/e/A/c/ E/A/C/E/ A/ c/e/a/ | b/f/d/c/ d/f/B/d/ F/B/D/F/ z/ GF/ | %26
 z/ c/=E/D/ E/G/C/E/ z/ A,/C/_E/ D/C/c/D/ | E/G/c/=B/ c/e/A/c/ ^F/A/ c/e/ d/c/a/c/ | %28
 z/ c/B/A/ B/d/=e/f/ g/c/B/A/ B/g/B/f/ | B/f/=e/d/ e/g/a/b/ c'/f/e/d/ e/c'/e/b/ | %30
 =e/b/a/g/ f/a/e/a/ d/a/d/c/ B/d/A/d/ | G/a/g/f/ =e/g/d/g/ c/g/c/B/ A/c/G/c/ | %32
 F/g/f/=e/ d/f/c/f/ B/f/B/A/ G/B/F/B/ | P=E2 z C FG/A/ BPA/G/ | A2 z/ C/F/G/ A/F/=B/c/ d/F/c/B/ | %35
 c2 z G cd/=e/ fPe/d/ | =ef/g/ _aPg/f/ ga/b/ c'Pb/a/ | b/g/=e/c/ B/G/c/e/ f/c/A/F/ z/ G/B/e/ | %38
 f>_e d>d z/ d/c z/ A/B | %39
 AF z/ F=E/"^Need double dot to make\nthis bar complementary  to\nthe anacrucis\n" F7/2 :: c/ | %41
 c/A/F/=E/ F/A/C/F/ A,/C/[I:staff +1] F,/A,/C/[I:staff -1] _E/A/B/ | %42
 c/A/E/D/ E/A/C/E/ A,/C/[I:staff +1] ^F,/A,/D/[I:staff -1] ^F/A/c/ | B4- B/B/A/G/ A/c/^F/G/ | %44
 ^F2 C/E/A,/C/ ^F,/A,/D/F/ G/D/A/D/ | B2 F/_A/D/F/ =B,/D/G/=B/ c/G/d/G/ | %46
 E/G/A/=B/ c/e/_B/e/ _A/e/A/G/ F/A/E/A/ | D/F/G/A/ B/d/_A/d/ G/d/G/F/ E/G/D/G/ | %48
 C/E/F/G/ _A/c/G/c/ F/c/F/E/ D/F/C/F/ |[I:staff +1] P=B,2[I:staff -1] z G, CD/E/ FPE/D/ | %50
 E2 z/ G,/C/D/ E/C/^F/G/ A/C/G/F/ | G2 z D GA/=B/ cPB/A/ | =Bc/d/ ePd/c/ de/f/ gPf/e/ | %53
 f/d/=B/G/ F/D/G/B/ c/G/E/C/ z/ D/F/B/ | c/G/E/C/ E/G/c/d/ e/c/A/G/ A/c/F/c/ | %55
 d/f/B/A/ B/d/f/g/ _a/f/d/c/ d/f/B/f/ | g/b/e/d/ c/g/a/b/ c'/f/e/d/ e/f/c/e/ | %57
 d/_A/G/F/ =E/G/B/G/ =A/_e/d/c/ d/B/F/A/ | B/d/f/g/ _a/f/d/B/ z/ B/e/g/ b/g/=e/_d/ | %59
 z/ c/_e/a/ c'/a/_g/e/ d/b/=g/=e/ f/B/A/_e/ | %60
 d/_A/G/c/ B/F/E/=A/"^Need double dot to make\nthis bar complementary  to\nthe anacrucis\n" [DFB]7/2 :| %61
[M:3/4][Q:1/4=108] B | (3BdA (3BFB (3dfA | (3BdA (3BGB (3egA | (3Bfc (3dBd (3fbd | %65
 (3gAc (3fGB (3eFA | d2- (3dBd (3fdc | (3BdA (3BGB (3dgb | =e2- (3ece (3ged | %69
 (3c=e=B (3cAc (3eac' | f2- (3fdf a2- | (3adc (3Bdg (3cBA- | (3ABA (3GB=e (3AGF- | %73
 (3FGF (3=EGc (3FED | =E3 z/ =e/ Pe3/2d/4e/4 | (3fcA F>f Pf3/2=e/4f/4 | (3g=eB G>g Pg3/2f/4g/4 | %77
 (3_a=ef (3dfa (3=bc'f | (3=edc (3gec (3BAG | (3AcG (3AFA (3cfG | (3FA=E (3FDF (3AdE | %81
 (3DFC (3DB,D (3FBC | B,2- B,>G B,>G | PB,2- B,>B, (3GA,B, | (3A,CB, (3CF=E (3BAG | %85
 (3FA=E (3FCF (3AcE | (3FA=E (3FCF (3AcE | (3FA=E (3FCF (3Ac_E | (3DBG P=E3 F | %89
"^Add quaver rest\nto make full bar\n" [A,CF]4 z :: F | (3FA=E (3FCF (3AcG | (3AcG (3A^FA (3ceB | %93
 (3ceB (3cAc (3^fad | (3bc'e (3abd (3gac | P^f2- (3fdf (3adc | (3BdA (3BGB (3dgb | %97
 e2- (3ece (3gcB | (3AcG (3AFA (3cfa | d2- (3dBd (3fB_A | G>f e>b _a>d | E>d c>g f>=B | %102
 C>_B A>e d>G | (3^FAc (3edc a z | (3DGB (3dcB b z | (3^C=EG (3BAG =e>G | (3^FGA (3DFA (3cBA | %107
 (3gfe (3dcB (3Ac^F | G3 z/ B/ D>E | (3F_AE (3FAd f>A | (3GBF (3GBe g2- | (3gfe (3def (3GAB | %112
"^add dot" PA3 z/ A/ PA3/2G/4A/4 | (3BFD B,>B PB3/2A/4B/4 | (3cAE C>c Pc3/2B/4c/4 | %115
 (3_dAB (3GBd (3=efB | (3PAGF _e2- (3edc | (3_dgc (3dAB (3PE=DE | (3DFC (3DB,D (3FBE | %119
 (3FBE (3FDF (3BdA | (3BdA (3BFB (3df_A | (3Gec PA3 B | %122
"^duraton of bar is complementary\nto anacrusis, but I have hidden \nextra quaver to match IMSLP00789\n" [DFB]4 x |] %123
[M:3/4][Q:1/4=58] d>d d-d/4c/4B/4A/4 B/d/f/G/ | M_A>A A-A/4B/4A/4G/4 A/d/f/A/ | %125
 G/e/4d/4c/4d/4e/ F/d/A/B/ E/A/4B/4c/E/ | PE>D- DD/4F/4E/4D/4 E/4F/4G/4A/4B/G/ | %127
 F/=E/G/c/ c-c/4d/4_e/4d/4 c/B/A/4B/4G/ | G/^F/A/c/4e/4 e3/2d/4c/4 d/4c/4B/c/4B/4A/ | %129
 B3/4(3A/8G/8^F/8G/A/ B/G/4A/4B/4c/4d/ d/=e/4f/4g/4f/4e/4f/4 | %130
 g/4c/4B/4A/4B/g/"_tidier to\nmerge stems\non quaver\n" g-g/4f/4=e/4d/4 c/B/PB/A/ | %131
 A/C/4=E/4F/A/ A/F/4G/4A/c/ c/A/4B/4c/f/ | f/a/4g/4f/4=e/4d/ c/f/4e/4d/4c/4B/ A/c/4B/4A/4G/4F/ | %133
 d/4c/4B/4A/4B/G/ F3/4(3G/8F/8=E/8F/4D/4B/ PE>F | F2 F4 :: %135
 c>c c-c/4d/4c/4B/4 c/4B/4A/4B/4A/4G/4A/8G/8F/4 | %136
 f>f f-f/4g/4f/4e/4 f/4e/4d/4e/8d/8c/8d/8c/8B/8c/4A/4 | B/F/4A/4B/d/ e2 e/c/4d/4e/4d/4c/ | %138
 d>d d-d/4c/4B/4A/4 B/4F/4B/4c/4d/4e/4f/4g/4 | _a/4g/4f/4e/4d/4e/4f/ =B/d/f/a/ Pg-g/4f/4e/4d/4 | %140
 e/4d/4c/4B/4_A/4B/4c/ F/A/c/e/ Pd3/2c/4=B/4 | c/E/PE/4D/4E/ A/^F/PF/4=E/4F/ _e/=B/PB/4A/4B/ | %142
 c>c"_tidier to\nmerge stems\non quaver\n" c-c/4G/4A/4B/4 c/4d/4c/4B/4c/d/ | %143
"^I can not find a close match in Musescore for the \nornament in IMSLP 00789.  The symbol I have used\nmatches Barennreiter IMSLP03276 and is probably equivalent\nCzerny IMSLP62200 uses a trill line for the full duration of the\nnote, with intital grace note below\n" Pe6- | %144
 e6- | e/d/4c/4d/b/- b/a/4g/4a/c/- c/B/4A/4B/g/ | BPA/4G/4A/4c/4 F4- | %147
 F/B,/4C/4D/F/ F/D/4E/4F/_A/ A2- | A/G/4_A/4B/_d/ d/B/4c/4d/g/ g/B/=A/B/- | %149
 B/4D/4E/4F/4G/4A/4B/4c/4 d/e/4d/4c/4d/4e/4c/4 B/G/MA/B/ | B2 B4 |][M:3/4][Q:1/4=160] dBABFB | %152
 dBeBfB | cAGAFA | cFdFeF | d_AeGfF | gfaebd | cedcdB | cAGAFe | dBABFB | dBeBfB | cAGAFA | %162
 cFdFeF | dc=eBfA | GBFB=EB | AcAFC=E |1 F3 G/A/ B/A/B/c/ :|2 F6 |: af=efcf | afbfaf | gedece | %171
 fdfcf=B | c_e^fcac | Ac^FcDc | BedBcA | G3 A/B/ A/G/F/E/ | DBABfB | _aBgBfB | EBABgB | EBFBGB | %180
 cBd_AeG | fegdac | bagfed | cBAGFE |[I:staff +1] D[I:staff -1]fgfcf | =BfAfGf | %186
[I:staff +1] C[I:staff -1]efeBe | AeGeFe | dfdBFA |1 B2- B/c/d/e/ f/=e/f/g/ :|2 B6 |] %191
[M:3/4] B4 F2 | G2 _A2 z2 | G2 e2 d2 | c2 BAGF | B4 F2 | G2 _A2 z2 | G2 e2 d2 |{d} [Ac]6 :: f4 c2 | %200
 d2 e2 z2 | ^F2 d2 c2 | B2 AB G2 | e4 d2 | g2 f2 z2 |{B} A4 [FB]2 | %206
"^add matching \nrepeat mark\n" [FB]6 :| %207
[M:4/4]"^Correct misspelling of \"Gique\"" f2[I:staff +1] B,2 B,,2[I:staff -1] f2 | g2 _A2 G2 g2 | %209
 c2 _G2 F2 c2 | d2[I:staff +1] B,2 B,,2[I:staff -1] d2 | g2 A2 PG2 F2 | =E2 G2 C2 =e2 | %213
 f2 G2 PF2 =E2 | D2 F2 B,2 d2 | =e2 _D2 C2 e2 | f2 _D2 C2 f2 | g2 _D2 C2 g2 | _a2 _D2 C2 a2 | %219
 =B2[I:staff +1] _A,2 G,2[I:staff -1] B2 | c2[I:staff +1] _D,2 C,2[I:staff -1] B2 | %221
 _A2[I:staff +1] =B,2 C2 C,2 | F,,2[I:staff -1] F2 f4 :: a2 E2[I:staff +1] F,2[I:staff -1] a2 | %224
 b2 _A2[I:staff +1] B,2[I:staff -1] b2 | g2 B2 A2 g2 | ^f2 G2 A2 f2 | g2 E2 D2 g2 | a2 E2 D2 a2 | %229
 b2 E2 D2 b2 | c'2 E2 D2 c'2 | b2 ^f2 g2 ^c2 | d2 G2 ^F2 _E2 | D2 ^C2 D2[I:staff +1] D,2 | %234
 G,,2 D,2 G,2 B,2 |[I:staff -1] D2 F2 B2 d2 | E2 B2 g2 D2 | C2 F2 B,2 =e2 | f2 F2 f2 F2 | %239
 e2 F2 e2 F2 | d2 F2 d2 F2 | _d2 =E2 d2 E2 | c2 _E2 c2 E2 | _c2 D2 c2 D2 | B2 _D2 B2 D2 | %245
 A2 C2 A2 C2 | =G2 B,2 G2 B,2 | A2[I:staff +1] _G,2 F,2[I:staff -1] A2 | %248
 B2[I:staff +1] _G,2 F,2[I:staff -1] B2 | c2[I:staff +1] _G,2 F,2[I:staff -1] c2 | %250
 _d2[I:staff +1] _G,2 F,2[I:staff -1] d2 | =e2[I:staff +1] _D,2 C,2[I:staff -1] e2 | %252
 f2[I:staff +1] _G,,2 F,,2[I:staff -1] _e2 | _d2[I:staff +1] =E,2 F,2 F,,2 | %254
 B,,2[I:staff -1] B2 b4 |] %255
V:2
 D2 EF G2 FE | D2 EC D[I:staff +1] B,2 A, | B,[I:staff -1]D G2- GC F2 | F=E/D/ E2 F4- | F4 A B3 | %5
 A2 BG z cAF | B4- B2 z e | d2 z d c2- c>B | A/D/PD/4^C/4D/ =E/D/^F/D/ G/D/PD/4C/4D/ F/D/G/D/ | %9
 AcBA- AG- G^F | G z z/ d/Pd/4c/4d/ g/cc/ dB- | B=E FG AF GA | B=E FG A2 G2 | %13
 A[I:staff +1]C A,F, B,4- | B,G, C2- CF, B,2- | B,A,/G,/ A,2[I:staff -1] z/4 F/4G/4A/4B/F/ G/D/E- | %16
 Ee dc Bd cB | Ac B2- BC DE | DD EF z EDC | B,F EE D d[ce][ce] | [Bdf]8 |] x/ | x8 | x8 | x8 | x8 | %26
 x8 | x8 | x8 | x8 | x8 | x8 | x8 | x8 | z/ F/=E/D/[I:staff +1] C/B,/A,/G,/ x4 | %35
[I:staff -1] z/ A/G/F/ =E/D/C/_B,/ x4 | x8 | x8 | z/ B/A z/ A/B =E>F G>G | %39
 z/ =E/F/=B,/ C_B, [A,C]7/2 :: x/ | x8 | x8 | z/ A/G/^F/ G/B/D/=F/ E4 | z/ D/C/B,/ x6 | %45
 z/ G/F/E/ x6 | x8 | x8 | x8 | x8 | x/ C/=B,/A,/ z2 z4 | x8 | x8 | x8 | x8 | x8 | x8 | x8 | x8 | %59
 x8 | x15/2 :|[M:3/4] x | x6 | x6 | x6 | x6 | x6 | x6 | x6 | x6 | x6 | x6 | x6 | x6 | x6 | x6 | %76
 x6 | x6 | x6 | x6 | x6 | x6 | x6 | x6 | x6 | x6 | x6 | x6 | x6 | x5 :: x | x6 | x6 | x6 | x6 | %95
 x6 | x6 | x6 | x6 | x6 | x6 | x6 | x6 | x6 | x6 | x6 | x6 | x6 | x6 | x6 | x6 | x6 | x6 | x6 | %114
 x6 | x6 | x6 | x6 | x6 | x6 | x6 | x6 | x5 |][M:3/4] [FB]2 [FB] z z2 | F2 [DF] z z2 | E2 D2 x2 | %126
 x6 | x/ =E3/2 [EG] z x2 | x/ ^F3/2 [Fc] z x2 | x6 | x2 [GBc] z x2 | x6 | x6 | x6 | x6 :: %135
 [FA]2 [FA] z x2 | x2 [Bd] z x2 | x/ F3/2 z/ G/4A/4B/4A/4G/ A2 | z/4 c/4B/4A/4B [FB] x3 | x6 | x6 | %141
 x6 | x2 [CEG] x3 | x6 | x6 | x6 | x6 | x6 | x6 | x6 | x2 [DF]4 |][M:3/4] x6 | x6 | x6 | x6 | x6 | %156
 x6 | x6 | x6 | x6 | x6 | x6 | x6 | x6 | x6 | x6 |1 x6 :|2 x6 |: x6 | x6 | x6 | x6 | x6 | x6 | x6 | %175
 x6 | x6 | x6 | x6 | x6 | x6 | x6 | x6 | x6 | x6 | x6 | x6 | x6 | x6 |1 x6 :|2 x6 |][M:3/4] x6 | %192
 x6 | G2 A2 B2 | A2 x4 | F4 x2 | x6 | G2 A2 B2 | x6 :: A2 B2 c2 | B2 A2 G2 | ^F2 D2 A2 | %202
 G2 ^F2 G2 | B4 _A2 | G2 A2 B2 | F4 E2 | D6 :|[M:4/4] x8 | x8 | x8 | x8 | x8 | x8 | x8 | x8 | x8 | %216
 x8 | x8 | x8 | x8 | x8 | x8 | x8 :: x8 | x8 | x8 | x8 | x8 | x8 | x8 | x8 | x8 | x8 | x8 | x8 | %235
 x8 | x8 | x8 | x8 | x8 | x8 | x8 | x8 | x8 | x8 | x8 | x8 | x8 | x8 | x8 | x8 | x8 | x8 | x8 | %254
 x8 |] %255
V:3
 B,8- | B,4- B,D, E,F, | B,, z z B, A,2 z D | G,2 z C z/ F,/PF,/4=E,/4F,/ G,/F,/A,/F,/ | %4
 B,/F,/PF,/4=E,/4F,/ A,/F,/B,/F,/ C/F,/PF,/4E,/4F,/ D/F,/=E/F,/ | %5
 F/=E/4D/4C/F/ G,/4A,/4B,A,/4G,/4 A,/4G,/4F,A,/4B,/4 C/4D/4_ED/4C/4 | %6
 D/4C/4B,D/4E/4 F/4G/4_AG/4F/4 G/4F/4ED/4E/4 F/4G/4=A/4B/4c/E/ | %7
 F/4E/4DC/4D/4 E/4F/4G/4A/4B/D/ E/4D/4C/-C/4B,/4A,/4B,/4 C/4D/4E/4D/4C/4B,/4A,/4G,/4 | %8
 D/ z/ z z2[K:bass] D, z z2 | z/ D,/PD,/4^C,/4D,/ =E,/D,/^F,/D,/ G,B,,C,D, | %10
 G,, G,2 F, =E,F, B,,G,, | C, z z2 C, z z2 | z CD=E FB, CC, | F,, z z2 z F,D,B,, | %14
 E,2 z E, D,2 z G, | C,2 z F, B,,D, E,C, | %16
 F,/F,,/PF,,/4=E,,/4F,,/ G,,/F,,/A,,/F,,/ B,,/F,,/PF,,/4E,,/4F,,/ A,,/F,,/B,,/F,,/ | %17
 C,/F,,/PF,,/4=E,,/4F,,/ D,/F,,/_E,/F,,/ F,G,/E,/ F,F,, | z B,2 _A, B,B,A,G, | F,DDC B, x x2 | %20
 !fermata!B,,8 |] z/ | B,,2 z2 z4 | B,,2 z2 z4 | B,,2 z2 z4 | x2 x2 x2 B,A, | G,2 z2 ^F,2 z2 | %27
 G,2 z2 z4 | G,, G,2 F, =E, =E2 D | C C,2 B,, A,, A,2 G, | %30
 F,[I:staff -1]FAc B[I:staff +1]B,[I:staff -1]DF | %31
[I:staff +1] =E,[I:staff -1]=EGB A[I:staff +1]A,[I:staff -1]CE | %32
[I:staff +1] D,[I:staff -1]DFA G[I:staff +1]G,B,D | %33
 C,/C/B,/A,/ G,/F,/=E,/D,/ C,/A,/G,/F,/ E,/G,/C,/E,/ | C,, z z2 F,/=E,/D,/C,/ =B,,/G,/G,,/F,/ | %35
 C,, z z2 A,/C/[I:staff -1]F/E/[I:staff +1] _A,/D/C/=B,/ | %36
 G,/_B,/_D/C/ F,/C/B,/_A,/ =E,/B,/A,/G,/ F,/E,/=D,/C,/ |[I:staff -1] =EG[I:staff +1]CB, A,B,CC, | %38
 z/ D/C z/ C/D z/ A,/B, z/ F,/G, | z/ G,/_A,- A,G, F,7/2 :: z/ | F,,2 z2 z4 | ^F,,2 z2 z4 | %43
 G,,A,,B,,G,, C,B,,C,A,, | D,2 z2 z C,B,,A,, | G,,2 z2 z F,E,D, | %46
 C,[I:staff -1]CEG F[I:staff +1]F,_A,C | B,,B,[I:staff -1]DF E[I:staff +1]E,G,B, | %48
 _A,,_A,CE DD,F,A, | z/ G,/F,/E,/ D,/C,/=B,,/A,,/ G,,/E,/D,/C,/ B,,/D,/G,,/B,,/ | %50
 G,,, z G,/F,/E,/D,/ C,/_B,,/A,,/G,,/ ^F,,/D,/D,,/C,/ | %51
 z/[I:staff -1] E/D/C/[I:staff +1] =B,/A,/G,/F,/ E,/G,/C/D/ ^F,/[I:staff -1]E/D/C/ | %52
 G,/D/E/F/ A,/G/F/E/ =B,/F/E/D/ C/E/D/C/ | DF[I:staff +1]G,F, E,F,G,G,, | C,G,CB, A,CF,A, | %55
 B,,D,F,B, D[I:staff -1]F[I:staff +1]B,D |[I:staff -1] E[I:staff +1]DCB, A,CF,A, | %57
 B,DG,C F,B,E,F, | B,,_A,D[I:staff -1]F[I:staff +1] B,,B,[I:staff -1]EG | %59
[I:staff +1] B,,C[I:staff -1]EA B/[I:staff +1]D/C/B,/[I:staff -1] F[I:staff +1]F, | %60
 z[I:staff -1] E[I:staff +1]DC B,7/2 :|[M:3/4] z | B,3 z/ D/ B,>D | G,3 z/ E/ B,>E | %64
 D,3 z/ F/ D>F | E>E, D,>D C>C, | (3B,,D,A,, (3B,,F,,B,, (3D,F,A,, | G,,2- G,,>D, B,,>G,, | %68
 (3C,=E,=B,, (3C,G,,C, (3E,G,_B,, | A,,2- A,,>=E, C,>A,, | (3D,F,C, (3D,A,,D, (3F,A,C, | %71
 B,,>A, G,>B,, A,,>F, | G,,>F, =E,>G,, F,,>D, | =E,,>D, C,>E,, D,,>=B,, | %74
 (3C,,=E,,G,, (3C,=E,G, (3B,,A,,G,, | (3C,,F,,A,, (3C,F,A, (3C,B,,A,, | %76
 (3C,,G,,C, (3=E,G,B, (3E,D,C, | [C,,=B,,]2 z2 z2 | [C,,C,]2 z z/ C,/ D,>=E, | %79
 (3F,A,C (3F,A,C (3=E,A,C | (3D,F,A, (3D,F,A, (3C,F,A, | (3B,,D,F, (3B,,D,F, (3A,,D,F, | %82
 (3G,,B,,D, (3G,,B,,D, (3F,,B,,D, | (3=E,,G,,C, (3=E,G,F, (3E,D,C, | F,>D, A,,>B,, C,>C,, | %85
 F,,>C, A,,>C, F,,>A,, | D,,>C, A,,>C, F,,>A,, | A,,,>C, A,,>C, F,,>A,, | B,,,>B,, C,2 C,,2 | %89
 F,,4 z :: z | F,3 z/ A,/ C>_E | E,3 z/ ^F,/ A,>C | D,3 z/ A,/ D>^F | G>G, F,>F E>E, | %95
 (3D,^F,A,[I:staff -1] (3D^FA c[I:staff +1] z | (3G,,B,,D, (3G,B,D[I:staff -1] F[I:staff +1] z | %97
 (3C,E,G,[I:staff -1] (3CEG B[I:staff +1] z | (3F,,A,,C, (3F,A,C[I:staff -1] E[I:staff +1] z | %99
 (3B,,D,F, (3B,[I:staff -1]DF _A[I:staff +1] z | (3z ED (3CEG (3FDB,- | (3B,CB, (3_A,CE (3D=B,G,- | %102
 (3G,A,G, (3^F,A,C (3B,G,E,- | (3E,CA, (3^F,G,A, (3E,D,C, | (3B,,G,D, (3B,,C,D, (3G,,^F,,=E,, | %105
 D,,>^C, D,,>C, D,,>C, | D,,3 z/ E,/ D,>C, | B,,>^F, G,>C, D,>D,, | %108
 (3G,,B,,^F,, (3G,,D,,G,, (3B,,D,G,, | D,,2 z z/ B,,/ (3D,F,B,, | E,2- (3E,G,E, (3C,E,G,, | %111
 A,,>F, D>D, E,>C, | (3F,,A,,C, (3F,A,C (3E,D,C, | (3F,,B,,D, (3F,B,D (3F,E,D, | %114
 (3F,,C,F, (3A,CE (3A,G,F, | [F,,=E,]2 z2 z2 | [F,,-F,]2 (3F,,A,,C, (3F,G,A, | %117
 B,>A, B,>=E, F,>F,, | (3B,,D,E, (3F,D,C, (3B,,D,G, | G,,2 z2 z2 | (3D,,B,,C, (3D,C,B,, (3F,D,B,, | %121
 E,,>E, F,2 F,,2 | B,,4 x |][M:3/4] D2 B,2 z2 | D2 B,2 z2 | B,2 B,2 C2 | C2 [F,B,]2 z2 | %127
 C2 G,2 z2 | C2 A,2 z2 | D2 G,2 z2 | C2 =E,2 z2 | F,2 F,,2 =E,2 | D,2 D,,2 C,2 | B,,2 C,2 C,,2 | %134
 z z/ A,,/4C,/4 F,4 :: [A,C]2 F,2 z2 | A,2 E,2 z2 | D,2 C,2 F,2 | B,2 B,2 z2 | D2 D2 z2 | %140
 C2 C2 z2 | =A,2 G,2 G,2- | G,2 C,2 z2 | C,/D,/E,/G,/ C/G,/F,/E,/ D,/C,/B,,/G,/ | %144
 A,,/B,,/C,/F,/ A,/C/B,/A,/ G,/F,/F/A,/ | B,>G =E>F G,>E | F,2- F,3/2(3G,/4F,/4E,/4 PE,>D, | %147
 D,2 D,,>D,"^See\nbar 21\n" PC,>B,, | E,2"_Add double dot\n""^See\nbar 21\n" P=E,7/2 D,/4E,/4 | %149
 F,2 E,2 F,2 | z z/ D,/4F,/4 B,4 |][M:3/4] B,2 F,2 D,2 | B,,2 C,2 D,2 | A,,2 C,2 F,2 | %154
 A,2 B,A,G,F, | B,2 C2 D2 |[I:staff -1] E2 F2 G2 | A2 B2[I:staff +1] B,2 | %158
[I:staff -1] F2[I:staff +1] F,2 A,2 | B,2 F,2 D,2 | B,,2 C,2 D,2 | A,,2 C,2 F,2 | A,2 B,A,G,F, | %163
 B,2 C2 D2 | =E,2 D,2 C,2 | F,2 B,,2 C,2 |1 F,,A,,C,F,G,A, :|2 F,2 C,2 A,,2 |: F,,2 C,2 F,2 | %169
 E,2 D,2 B,,2 | E,2 G,2 _A,2 | D,2 G,2 G,,2 | C,2 A,2 G,2 | ^F,2 D,2 F,2 | G,2 B,,2 D,2 | %175
 G,,A,,B,,C,D,E, | F,2 E,2 D,2 | F,2 E,2 D,2 | G,2 F,2 E,2 | G,2 F,2 E,2 | _A,2 B,2 C2 | %181
 D2[I:staff -1] E2 F2 | G2 A2 B2 | F2[I:staff +1] F,2 A,2 | D2 D,2 F,2 | G,2 A,2 =B,2 | %186
 C2 C,2 E,2 | F,2 G,2 A,2 | B,2 E,2 F,2 |1 B,,D,C,B,,A,,G,, :|2 B,,6 |][M:3/4] z2 C2 D2 | E4 D2- | %193
 E4 F2- | F2 C2 E2- | E2 C2 D2 | E4 D2- | E4 F2 | F6 :: C4 F2- | F2 C4- | C2 B,A,G,^F, | %202
 G,2 D,2 G,,2 | z2 A,2 B,2- | B,2 C2 D2- | D2 C2 x2 | B,6 :| %207
[M:4/4] (3z[I:staff -1] DB[I:staff +1] (3z[I:staff -1] DB[I:staff +1] (3z[I:staff -1] DB[I:staff +1] (3z[I:staff -1] DB | %208
[I:staff +1] (3z[I:staff -1] EB[I:staff +1] (3z[I:staff -1] EB[I:staff +1] (3z[I:staff -1] EB[I:staff +1] (3z[I:staff -1] EB | %209
[I:staff +1] (3z[I:staff -1] EA[I:staff +1] (3z[I:staff -1] EA[I:staff +1] (3z[I:staff -1] EA[I:staff +1] (3z[I:staff -1] EA | %210
[I:staff +1] (3z[I:staff -1] FB[I:staff +1] (3z[I:staff -1] FB[I:staff +1] (3z[I:staff -1] FB[I:staff +1] (3z[I:staff -1] FB | %211
[I:staff +1] (3z[I:staff -1] Bd[I:staff +1] (3z[I:staff -1] Bd[I:staff +1] (3z[I:staff -1] Bd[I:staff +1] (3z[I:staff -1] Bd | %212
[I:staff +1] (3z[I:staff -1] Bc[I:staff +1] (3z[I:staff -1] Bc[I:staff +1] (3z[I:staff -1] Bc[I:staff +1] (3z[I:staff -1] Bc | %213
[I:staff +1] (3z[I:staff -1] Ac[I:staff +1] (3z[I:staff -1] Ac[I:staff +1] (3z[I:staff -1] Ac[I:staff +1] (3z[I:staff -1] Ac | %214
[I:staff +1] (3z[I:staff -1] AB[I:staff +1] (3z[I:staff -1] AB[I:staff +1] (3z[I:staff -1] AB[I:staff +1] (3z[I:staff -1] AB | %215
[I:staff +1] (3z[I:staff -1] GB[I:staff +1] (3z[I:staff -1] GB[I:staff +1] (3z[I:staff -1] GB[I:staff +1] (3z[I:staff -1] GB | %216
[I:staff +1] (3z[I:staff -1] F_A[I:staff +1] (3z[I:staff -1] FA[I:staff +1] (3z[I:staff -1] FA[I:staff +1] (3z[I:staff -1] FA | %217
[I:staff +1] (3z[I:staff -1] =EG[I:staff +1] (3z[I:staff -1] EG[I:staff +1] (3z[I:staff -1] EG[I:staff +1] (3z[I:staff -1] EG | %218
[I:staff +1] (3z[I:staff -1] =EF[I:staff +1] (3z[I:staff -1] EF[I:staff +1] (3z[I:staff -1] EF[I:staff +1] (3z[I:staff -1] EF | %219
[I:staff +1] (3z[I:staff -1] DF[I:staff +1] (3z[I:staff -1] DF[I:staff +1] (3z[I:staff -1] DF[I:staff +1] (3z[I:staff -1] DF | %220
[I:staff +1] (3z[I:staff -1] =EG[I:staff +1] (3z[I:staff -1] EG[I:staff +1] (3z[I:staff -1] EG[I:staff +1] (3z[I:staff -1] EG | %221
[I:staff +1] (3z[I:staff -1] =EF[I:staff +1] (3z[I:staff -1] EF[I:staff +1] (3z[I:staff -1] EF[I:staff +1] (3z[I:staff -1] EF | %222
[I:staff +1] (3z A,C (3z[I:staff -1] Ac[I:staff +1] x4 :: %223
 (3z[I:staff -1] Fc[I:staff +1] (3z[I:staff -1] Fc[I:staff +1] (3z[I:staff -1] Fc[I:staff +1] (3z[I:staff -1] Fc | %224
[I:staff +1] (3z[I:staff -1] Fd[I:staff +1] (3z[I:staff -1] Fd[I:staff +1] (3z[I:staff -1] Fd[I:staff +1] (3z[I:staff -1] Fd | %225
[I:staff +1] (3z[I:staff -1] Ed[I:staff +1] (3z[I:staff -1] Ed[I:staff +1] (3z[I:staff -1] Ec[I:staff +1] (3z[I:staff -1] Ec | %226
[I:staff +1] (3z[I:staff -1] Dc[I:staff +1] (3z[I:staff -1] =Ec[I:staff +1] (3z[I:staff -1] ^Fc[I:staff +1] (3z[I:staff -1] Ac | %227
[I:staff +1] (3z[I:staff -1] GB[I:staff +1] (3z[I:staff -1] GB[I:staff +1] (3z[I:staff -1] GB[I:staff +1] (3z[I:staff -1] GB | %228
[I:staff +1] (3z[I:staff -1] ^FA[I:staff +1] (3z[I:staff -1] FA[I:staff +1] (3z[I:staff -1] FA[I:staff +1] (3z[I:staff -1] FA | %229
[I:staff +1] (3z[I:staff -1] ^FG[I:staff +1] (3z[I:staff -1] FG[I:staff +1] (3z[I:staff -1] FG[I:staff +1] (3z[I:staff -1] FG | %230
[I:staff +1] (3z[I:staff -1] ^FA[I:staff +1] (3z[I:staff -1] FA[I:staff +1] (3z[I:staff -1] FA[I:staff +1] (3z[I:staff -1] FA | %231
[I:staff +1] (3z[I:staff -1] GB[I:staff +1] (3z[I:staff -1] Ac[I:staff +1] (3z[I:staff -1] Bd[I:staff +1] (3z[I:staff -1] G=e | %232
[I:staff +1] (3z[I:staff -1] A^f[I:staff +1] (3z[I:staff -1] Bg[I:staff +1] (3z[I:staff -1] ca[I:staff +1] (3z[I:staff -1] cf | %233
[I:staff +1] (3z[I:staff -1] =Bg[I:staff +1] (3z[I:staff -1] _B=e[I:staff +1] (3z[I:staff -1] A^f[I:staff +1] (3z[I:staff -1] cf | %234
[I:staff +1] (3z[I:staff -1] Bg[I:staff +1] (3z[I:staff -1] Bg[I:staff +1] (3z[I:staff -1] Bg[I:staff +1] (3z[I:staff -1] Bg | %235
[I:staff +1] (3z[I:staff -1] _Af[I:staff +1] (3z[I:staff -1] Af[I:staff +1] (3z[I:staff -1] Af[I:staff +1] (3z[I:staff -1] Af | %236
[I:staff +1] (3z[I:staff -1] Ge[I:staff +1] (3z[I:staff -1] Ge[I:staff +1] (3z[I:staff -1] Ge[I:staff +1] (3z[I:staff -1] Ge | %237
[I:staff +1] (3z[I:staff -1] Ae[I:staff +1] (3z[I:staff -1] Ae[I:staff +1] (3z[I:staff -1] Bd[I:staff +1] (3z[I:staff -1] B_d | %238
[I:staff +1] (3z[I:staff -1] Ac[I:staff +1] (3z[I:staff -1] Ac[I:staff +1] (3z[I:staff -1] Ac[I:staff +1] (3z[I:staff -1] Ac | %239
[I:staff +1] (3z[I:staff -1] Ac[I:staff +1] (3z[I:staff -1] Ac[I:staff +1] (3z[I:staff -1] Ac[I:staff +1] (3z[I:staff -1] Ac | %240
[I:staff +1] (3z[I:staff -1] _A=B[I:staff +1] (3z[I:staff -1] AB[I:staff +1] (3z[I:staff -1] AB[I:staff +1] (3z[I:staff -1] AB | %241
[I:staff +1] (3z[I:staff -1] G_B[I:staff +1] (3z[I:staff -1] GB[I:staff +1] (3z[I:staff -1] GB[I:staff +1] (3z[I:staff -1] GB | %242
[I:staff +1] (3z[I:staff -1] _G=A[I:staff +1] (3z[I:staff -1] GA[I:staff +1] (3z[I:staff -1] GA[I:staff +1] (3z[I:staff -1] GA | %243
[I:staff +1] (3z[I:staff -1] F_A[I:staff +1] (3z[I:staff -1] FA[I:staff +1] (3z[I:staff -1] FA[I:staff +1] (3z[I:staff -1] FA | %244
[I:staff +1] (3z[I:staff -1] =EG[I:staff +1] (3z[I:staff -1] EG[I:staff +1] (3z[I:staff -1] EG[I:staff +1] (3z[I:staff -1] EG | %245
[I:staff +1] (3z[I:staff -1] _E_G[I:staff +1] (3z[I:staff -1] EG[I:staff +1] (3z[I:staff -1] EG[I:staff +1] (3z[I:staff -1] EG | %246
[I:staff +1] (3z[I:staff -1] _D=E[I:staff +1] (3z[I:staff -1] DE[I:staff +1] (3z[I:staff -1] DE[I:staff +1] (3z[I:staff -1] DE | %247
[I:staff +1] (3z[I:staff -1] C_E[I:staff +1] (3z[I:staff -1] CE[I:staff +1] (3z[I:staff -1] CE[I:staff +1] (3z[I:staff -1] CE | %248
[I:staff +1] (3z B,_D (3z B,D (3z B,D (3z B,D | (3z A,C (3z A,C (3z A,C (3z A,C | %250
 (3z A,B, (3z A,B, (3z A,B, (3z A,B, | (3z G,B, (3z G,B, (3z G,B, (3z G,B, | %252
 (3z A,C (3z A,C (3z A,C (3z A,C | (3z A,B, (3z A,B, (3z A,B, (3z A,B, | %254
 (3z[I:staff -1] =DF[I:staff +1] (3z[I:staff -1] df[I:staff +1] x4 |] %255
V:4
 x8 | x8 | x8 | x8 | x8 | x8 | x8 | G,4 x4 | x4[K:bass] x4 | x8 | x8 | x8 | x8 | x8 | x8 | x8 | %16
 x8 | x8 | B,, z z2 B,, z z2 | B,, z z2 z D,,E,,F,, | B,,,8 |] x/ | x8 | x8 | x8 | B,,2 z2 z4 | %26
 B,,2 z2 A,,2 z2 | G,,2 z2 z4 | x8 | x8 | x8 | x8 | x8 | x8 | x8 | x8 | x8 | x8 | %38
 F,>A, B,>A, G,>F, =E,>E, | F,>D, C,C,, F,,7/2 :: x/ | x8 | x8 | x8 | x8 | x8 | x8 | x8 | x8 | %49
 G,,2 z2 x4 | x8 | G,,, z z2 x4 | x8 | x8 | x8 | x8 | x8 | x8 | x8 | x8 | B,4 B,,7/2 :|[M:3/4] x | %62
 x6 | x6 | x6 | x6 | x6 | x6 | x6 | x6 | x6 | x6 | x6 | x6 | x6 | x6 | x6 | x2 z2 z2 | x6 | x6 | %80
 x6 | x6 | x6 | x6 | x6 | x6 | x6 | x6 | x6 | x5 :: x | x6 | x6 | x6 | x6 | x6 | x6 | x6 | x6 | %99
 x6 | x6 | x6 | x6 | x6 | x6 | x6 | x6 | x6 | x6 | x6 | x6 | x6 | x6 | x6 | x6 | x2 z2 z2 | x6 | %117
 x6 | x6 | x6 | x6 | x6 | x5 |][M:3/4] B,2 B,,2 z2 | B,2 B,,2 z2 | z2 z2 B,A, | B,F, B,,2 z2 | %127
 B,2 B,,2 z2 | A,2 A,,2 z2 | G,2 G,,2 F,2 | =E,2 =E,,2 z2 | x6 | x6 | x6 | F,,6 :: F,2 F,,2 z2 | %136
 E,2 E,,2 z2 | x6 | x2 B,,2 z2 | =B,2 G,2 z2 | C,2 _A,2 z2 | ^F,2 G,2 G,,2 | C,2 C,,2 z2 | x6 | %144
 x6 | x6 | x6 | x6 | x6 | x6 | B,,6 |][M:3/4] x6 | x6 | x6 | x6 | x6 | x6 | x6 | x6 | x6 | x6 | %161
 x6 | x6 | x6 | x6 | x6 |1 x6 :|2 x6 |: x6 | x6 | x6 | x6 | x6 | x6 | x6 | x6 | x6 | x6 | x6 | x6 | %180
 x6 | x6 | x6 | x6 | x6 | x6 | x6 | x6 | x6 |1 x6 :|2 x6 |][M:3/4] B,6- | B,6 | D2 C2 B,2 | %194
 F,4 z2 | B,6- | B,6 | D2 C2 B,2 | F,6 :: F,2 G,2 A,2 | B,4 B,2 | A,2 ^F,2 D,2 | G,6- | G,4 F,2 | %204
 E,4 D,2 | F,6 | B,,6 :|[M:4/4] x8 | x8 | x8 | x8 | x8 | x8 | x8 | x8 | x8 | x8 | x8 | x8 | x8 | %220
 x8 | x8 | x8 :: x8 | x8 | x8 | x8 | x8 | x8 | x8 | x8 | x8 | x8 | x8 | x8 | x8 | x8 | x8 | x8 | %239
 x8 | x8 | x8 | x8 | x8 | x8 | x8 | x8 | x8 | x8 | x8 | x8 | x8 | x8 | x8 | x8 |] %255
V:5
 x8 | x8 | x8 | x8 | x8 | x8 | x8 | x8 | x4[K:bass] x4 | x8 | x8 | x8 | x8 | x8 | x8 | x8 | x8 | %17
 x8 | x4 G,G,F,E, | D,_A, G,_G, F,D,E,F, | x8 |] x/ | x8 | x8 | x8 | x8 | x8 | x8 | x8 | x8 | x8 | %31
 x8 | x8 | x8 | x8 | x8 | x8 | x8 | x8 | x15/2 :: x/ | x8 | x8 | x8 | x8 | x8 | x8 | x8 | x8 | x8 | %50
 x8 | x8 | x8 | x8 | x8 | x8 | x8 | x8 | x8 | x8 | x15/2 :|[M:3/4] x | x6 | x6 | x6 | x6 | x6 | %67
 x6 | x6 | x6 | x6 | x6 | x6 | x6 | x6 | x6 | x6 | x6 | x6 | x6 | x6 | x6 | x6 | x6 | x6 | x6 | %86
 x6 | x6 | x6 | x5 :: x | x6 | x6 | x6 | x6 | x6 | x6 | x6 | x6 | x6 | x6 | x6 | x6 | x6 | x6 | %105
 x6 | x6 | x6 | x6 | x6 | x6 | x6 | x6 | x6 | x6 | x6 | x6 | x6 | x6 | x6 | x6 | x6 | x5 |] %123
[M:3/4] x6 | x6 | x6 | x6 | x6 | x6 | x6 | x6 | x6 | x6 | x6 | x6 :: x6 | x6 | x6 | x6 | x6 | x6 | %141
 x6 | x6 | x6 | x6 | x6 | x6 | x6 | x6 | x6 | x6 |][M:3/4] x6 | x6 | x6 | x6 | x6 | x6 | x6 | x6 | %159
 x6 | x6 | x6 | x6 | x6 | x6 | x6 |1 x6 :|2 x6 |: x6 | x6 | x6 | x6 | x6 | x6 | x6 | x6 | x6 | x6 | %178
 x6 | x6 | x6 | x6 | x6 | x6 | x6 | x6 | x6 | x6 | x6 |1 x6 :|2 x6 |][M:3/4] x6 | E2 F4 | x6 | x6 | %195
 x6 | E2 F4 | x6 | x6 :: x6 | x6 | x6 | x6 | x6 | x6 | x6 | x6 :|[M:4/4] x8 | x8 | x8 | x8 | x8 | %212
 x8 | x8 | x8 | x8 | x8 | x8 | x8 | x8 | x8 | x8 | x8 :: x8 | x8 | x8 | x8 | x8 | x8 | x8 | x8 | %231
 x8 | x8 | x8 | x8 | x8 | x8 | x8 | x8 | x8 | x8 | x8 | x8 | x8 | x8 | x8 | x8 | x8 | x8 | x8 | %250
 x8 | x8 | x8 | x8 | x8 |] %255
V:6
 x8 | x8 | x8 | x8 | x8 | x8 | x8 | x8 | x8 | x8 | x8 | x8 | x8 | x8 | x8 | x8 | x8 | x8 | x8 | %19
 x8 | x8 |] x/ | x8 | x8 | x8 | x8 | x8 | x8 | x8 | x8 | x8 | x8 | x8 | x8 | x8 | x8 | x8 | x8 | %38
 x8 | x15/2 :: x/ | x8 | x8 | x8 | x8 | x8 | x8 | x8 | x8 | x8 | x8 | x8 | x8 | x8 | x8 | x8 | x8 | %57
 x8 | x8 | x8 | x15/2 :|[M:3/4] x | x6 | x6 | x6 | x6 | x6 | x6 | x6 | x6 | x6 | x6 | x6 | x6 | %74
 x6 | x6 | x6 | x6 | x6 | x6 | x6 | x6 | x6 | x6 | x6 | x6 | x6 | x6 | x6 | x5 :: x | x6 | x6 | %93
 x6 | x6 | x6 | x6 | x6 | x6 | x6 | x6 | x6 | x6 | x6 | x6 | x6 | x6 | x6 | x6 | x6 | x6 | x6 | %112
 x6 | x6 | x6 | x6 | x6 | x6 | x6 | x6 | x6 | x6 | x5 |][M:3/4] x6 | x6 | x6 | x6 | x G x4 | %128
 x A x4 | x6 | x6 | x6 | x6 | x6 | x6 :: x6 | x6 | x B x4 | x6 | x6 | x6 | x6 | x6 | x6 | x6 | x6 | %146
 x6 | x6 | x6 | x6 | x6 |][M:3/4] x6 | x6 | x6 | x6 | x6 | x6 | x6 | x6 | x6 | x6 | x6 | x6 | x6 | %164
 x6 | x6 |1 x6 :|2 x6 |: x6 | x6 | x6 | x6 | x6 | x6 | x6 | x6 | x6 | x6 | x6 | x6 | x6 | x6 | x6 | %183
 x6 | x6 | x6 | x6 | x6 | x6 |1 x6 :|2 x6 |][M:3/4] x6 | x6 | x6 | x6 | x6 | x6 | x6 | x6 :: x6 | %200
 x6 | x6 | x6 | x6 | x6 | x6 | x6 :|[M:4/4] x8 | x8 | x8 | x8 | x8 | x8 | x8 | x8 | x8 | x8 | x8 | %218
 x8 | x8 | x8 | x8 | x8 :: x8 | x8 | x8 | x8 | x8 | x8 | x8 | x8 | x8 | x8 | x8 | x8 | x8 | x8 | %237
 x8 | x8 | x8 | x8 | x8 | x8 | x8 | x8 | x8 | x8 | x8 | x8 | x8 | x8 | x8 | x8 | x8 | x8 |] %255
V:7
 x8 | x8 | x8 | x8 | x8 | x8 | x8 | x8 | x8 | x8 | x8 | x8 | x8 | x8 | x8 | x8 | x8 | x8 | x8 | %19
 x8 | x8 |] x/ | x8 | x8 | x8 | x8 | x8 | x8 | x8 | x8 | x8 | x8 | x8 | x8 | x8 | x8 | x8 | x8 | %38
 x8 | x15/2 :: x/ | x8 | x8 | x8 | x8 | x8 | x8 | x8 | x8 | x8 | x8 | x8 | x8 | x8 | x8 | x8 | x8 | %57
 x8 | x8 | x8 | x15/2 :|[M:3/4] x | x6 | x6 | x6 | x6 | x6 | x6 | x6 | x6 | x6 | x6 | x6 | x6 | %74
 x6 | x6 | x6 | x6 | x6 | x6 | x6 | x6 | x6 | x6 | x6 | x6 | x6 | x6 | x6 | x5 :: x | x6 | x6 | %93
 x6 | x6 | x6 | x6 | x6 | x6 | x6 | x6 | x6 | x6 | x6 | x6 | x6 | x6 | x6 | x6 | x6 | x6 | x6 | %112
 x6 | x6 | x6 | x6 | x6 | x6 | x6 | x6 | x6 | x6 | x5 |][M:3/4] x6 | x6 | x6 | x6 | x6 | %128
 x3/2 c/ x4 | x6 | x6 | x6 | x6 | x6 | x6 :: x6 | x6 | x6 | x6 | x6 | x6 | x6 | x6 | x6 | x6 | x6 | %146
 x6 | x6 | x6 | x6 | x6 |][M:3/4] x6 | x6 | x6 | x6 | x6 | x6 | x6 | x6 | x6 | x6 | x6 | x6 | x6 | %164
 x6 | x6 |1 x6 :|2 x6 |: x6 | x6 | x6 | x6 | x6 | x6 | x6 | x6 | x6 | x6 | x6 | x6 | x6 | x6 | x6 | %183
 x6 | x6 | x6 | x6 | x6 | x6 |1 x6 :|2 x6 |][M:3/4] x6 | x6 | x6 | x6 | x6 | x6 | x6 | x6 :: x6 | %200
 x6 | x6 | x6 | x6 | x6 | x6 | x6 :|[M:4/4] x8 | x8 | x8 | x8 | x8 | x8 | x8 | x8 | x8 | x8 | x8 | %218
 x8 | x8 | x8 | x8 | x8 :: x8 | x8 | x8 | x8 | x8 | x8 | x8 | x8 | x8 | x8 | x8 | x8 | x8 | x8 | %237
 x8 | x8 | x8 | x8 | x8 | x8 | x8 | x8 | x8 | x8 | x8 | x8 | x8 | x8 | x8 | x8 | x8 | x8 |] %255

